svg/icon/rlc.svg

<svg height="32" viewBox="0 0 32 32" width="32" xmlns="http://www.w3.org/2000/svg" xmlns:xlink="http://www.w3.org/1999/xlink"><defs><linearGradient id="a" x1="50%" x2="50%" y1="0%" y2="100%"><stop offset="0" stop-color="#fff" stop-opacity=".5"/><stop offset="1" stop-opacity=".5"/></linearGradient><circle id="b" cx="16" cy="15" r="15"/><filter id="c" height="111.7%" width="111.7%" x="-5.8%" y="-4.2%"><feOffset dy=".5" in="SourceAlpha" result="shadowOffsetOuter1"/><feGaussianBlur in="shadowOffsetOuter1" result="shadowBlurOuter1" stdDeviation=".5"/><feComposite in="shadowBlurOuter1" in2="SourceAlpha" operator="out" result="shadowBlurOuter1"/><feColorMatrix in="shadowBlurOuter1" values="0 0 0 0 0   0 0 0 0 0   0 0 0 0 0  0 0 0 0.199473505 0"/></filter><path id="d" d="m23.683432 11.8858243c.056213-.0571424.168639-.0571424.281065-.0571424 1.6863906 0 3.035503 1.4285603 3.035503 3.1428326 0 1.5999875-1.1804734 2.8571206-2.6982249 3.1428327h-.3372781c-.5621301 0-1.1242603-.1714273-1.6301775-.4571393-.168639-.1142849-.3372781-.1714273-.5621302-.1714273-.224852 0-.4497041.0571424-.6183431.1714273-.3934912.2285696-.5621302.6285665-.5621302 1.0857058v.5142817c-.1124261 1.4285603-1.2366864 2.6285509-2.6982249 2.7999782h-.3372781c-.5621302 0-1.1242603-.1714273-1.6301775-.4571393-.2248521-.1142848-.3934911-.1714273-.6183432-.1714273s-.4497041.0571425-.6183432.1714273c-.3934911.2285696-.5621302.6285665-.5621302 1.0857058v.5142817c-.112426 1.4857027-1.2928994 2.628551-2.7544378 2.7999782h-.2810651c-1.68639056 0-3.03550298-1.4285603-3.03550298-3.1428327.05621302-1.5999875 1.18047337-2.914263 2.69822488-3.0856902h.3372781c.5621302 0 1.1242603.1714272 1.6301775.4571393.168639.1142848.3372781.1714272.5621302.1714272.224852 0 .4497041-.0571424.6183432-.1714272.3934911-.2285696.5621301-.6285665.5621301-1.0857058-.112426-1.65713 1.0680474-3.1428327 2.6982249-3.3142599h.3372781c.5621302 0 1.1242604.1714272 1.6301775.4571393.2248521.1142848.3934911.1714272.6183432.1714272s.4497042-.0571424.6183432-.1714272c.3934911-.2285697.5621302-.6285665.5621302-1.0857058-.1124261-1.65713 1.1242603-3.1428327 2.7544379-3.3142599zm-6.4644971-3.94276931c.112426-.05714241.1686391-.05714241.3372781-.05714241 1.6863906 0 3.035503 1.42856029 3.035503 3.14283262-.056213 1.5999876-1.1804734 2.914263-2.6982249 3.0856903h-.3372781c-.5621302 0-1.1242603-.1714273-1.6301775-.4571393-.1686391-.1142848-.3372781-.1714273-.5621302-.1714273-.224852 0-.4497041.0571425-.6183432.1714273-.3934911.2285696-.5621301.6285665-.5621301 1.0857058v.5142817c-.1124261 1.4851313-1.2928995 2.6279795-2.7544379 2.7999782h-.2810651c-1.68639054 0-3.03550296-1.4285603-3.03550296-3.1428327 0-1.5428451 1.12426035-2.7999781 2.64201186-3.0285478h.3372781c.5621302 0 1.1242603.1714272 1.6301775.4571393.168639.1142848.3372781.1714272.5621302.1714272.224852 0 .4497041-.0571424.6183432-.1714272.3934911-.2285696.5621301-.6285665.5621301-1.0857058-.112426-1.65712997 1.1242604-3.14283268 2.7544379-3.31425991zm-6.1834319-3.94305499c1.6762721 0 3.0355029 1.38170352 3.0355029 3.08569024s-1.3592308 3.08569026-3.0355029 3.08569026c-1.67627223 0-3.035503-1.38170354-3.035503-3.08569026s1.35923077-3.08569024 3.035503-3.08569024z"/><filter id="e" height="115.9%" width="118.4%" x="-9.2%" y="-5.7%"><feOffset dy=".5" in="SourceAlpha" result="shadowOffsetOuter1"/><feGaussianBlur in="shadowOffsetOuter1" result="shadowBlurOuter1" stdDeviation=".5"/><feColorMatrix in="shadowBlurOuter1" values="0 0 0 0 0   0 0 0 0 0   0 0 0 0 0  0 0 0 0.204257246 0"/></filter></defs><g fill="none" fill-rule="evenodd"><use fill="#000" filter="url(#c)" xlink:href="#b"/><use fill="#ffd800" xlink:href="#b"/><use fill="url(#a)" xlink:href="#b"/><circle cx="16" cy="15" r="14.5" stroke="#000" stroke-opacity=".097"/><use fill="#000" filter="url(#e)" xlink:href="#d"/><use fill="#fff" xlink:href="#d"/></g></svg>

<svg xmlns="http://www.w3.org/2000/svg" xmlns:xlink="http://www.w3.org/1999/xlink" width="32" height="32" viewBox="0 0 32 32">
  <defs>
    <linearGradient id="rlc-c" x1="50%" x2="50%" y1="0%" y2="100%">
      <stop offset="0%" stop-color="#FFF" stop-opacity=".5"/>
      <stop offset="100%" stop-opacity=".5"/>
    </linearGradient>
    <circle id="rlc-b" cx="16" cy="15" r="15"/>
    <filter id="rlc-a" width="111.7%" height="111.7%" x="-5.8%" y="-4.2%" filterUnits="objectBoundingBox">
      <feOffset dy=".5" in="SourceAlpha" result="shadowOffsetOuter1"/>
      <feGaussianBlur in="shadowOffsetOuter1" result="shadowBlurOuter1" stdDeviation=".5"/>
      <feComposite in="shadowBlurOuter1" in2="SourceAlpha" operator="out" result="shadowBlurOuter1"/>
      <feColorMatrix in="shadowBlurOuter1" values="0 0 0 0 0   0 0 0 0 0   0 0 0 0 0  0 0 0 0.199473505 0"/>
    </filter>
    <path id="rlc-e" d="M23.683432,11.8858243 C23.739645,11.8286819 23.852071,11.8286819 23.964497,11.8286819 C25.6508876,11.8286819 27,13.2572422 27,14.9715145 C27,16.571502 25.8195266,17.8286351 24.3017751,18.1143472 L23.964497,18.1143472 C23.4023669,18.1143472 22.8402367,17.9429199 22.3343195,17.6572079 C22.1656805,17.542923 21.9970414,17.4857806 21.7721893,17.4857806 C21.5473373,17.4857806 21.3224852,17.542923 21.1538462,17.6572079 C20.760355,17.8857775 20.591716,18.2857744 20.591716,18.7429137 L20.591716,19.2571954 C20.4792899,20.6857557 19.3550296,21.8857463 17.8934911,22.0571736 L17.556213,22.0571736 C16.9940828,22.0571736 16.4319527,21.8857463 15.9260355,21.6000343 C15.7011834,21.4857495 15.5325444,21.428607 15.3076923,21.428607 C15.0828402,21.428607 14.8579882,21.4857495 14.6893491,21.6000343 C14.295858,21.8286039 14.1272189,22.2286008 14.1272189,22.6857401 L14.1272189,23.2000218 C14.0147929,24.6857245 12.8343195,25.8285728 11.3727811,26 L11.091716,26 C9.40532544,26 8.05621302,24.5714397 8.05621302,22.8571673 C8.11242604,21.2571798 9.23668639,19.9429043 10.7544379,19.7714771 L11.091716,19.7714771 C11.6538462,19.7714771 12.2159763,19.9429043 12.7218935,20.2286164 C12.8905325,20.3429012 13.0591716,20.4000436 13.2840237,20.4000436 C13.5088757,20.4000436 13.7337278,20.3429012 13.9023669,20.2286164 C14.295858,20.0000468 14.464497,19.6000499 14.464497,19.1429106 C14.352071,17.4857806 15.5325444,16.0000779 17.1627219,15.8286507 L17.5,15.8286507 C18.0621302,15.8286507 18.6242604,16.0000779 19.1301775,16.28579 C19.3550296,16.4000748 19.5236686,16.4572172 19.7485207,16.4572172 C19.9733728,16.4572172 20.1982249,16.4000748 20.3668639,16.28579 C20.760355,16.0572203 20.9289941,15.6572235 20.9289941,15.2000842 C20.816568,13.5429542 22.0532544,12.0572515 23.683432,11.8858243 Z M17.2189349,7.94305499 C17.3313609,7.88591258 17.387574,7.88591258 17.556213,7.88591258 C19.2426036,7.88591258 20.591716,9.31447287 20.591716,11.0287452 C20.535503,12.6287328 19.4112426,13.9430082 17.8934911,14.1144355 L17.556213,14.1144355 C16.9940828,14.1144355 16.4319527,13.9430082 15.9260355,13.6572962 C15.7573964,13.5430114 15.5887574,13.4858689 15.3639053,13.4858689 C15.1390533,13.4858689 14.9142012,13.5430114 14.7455621,13.6572962 C14.352071,13.8858658 14.183432,14.2858627 14.183432,14.743002 L14.183432,15.2572837 C14.0710059,16.742415 12.8905325,17.8852632 11.4289941,18.0572619 L11.147929,18.0572619 C9.46153846,18.0572619 8.11242604,16.6287016 8.11242604,14.9144292 C8.11242604,13.3715841 9.23668639,12.1144511 10.7544379,11.8858814 L11.091716,11.8858814 C11.6538462,11.8858814 12.2159763,12.0573086 12.7218935,12.3430207 C12.8905325,12.4573055 13.0591716,12.5144479 13.2840237,12.5144479 C13.5088757,12.5144479 13.7337278,12.4573055 13.9023669,12.3430207 C14.295858,12.1144511 14.464497,11.7144542 14.464497,11.2573149 C14.352071,9.60018493 15.5887574,8.11448222 17.2189349,7.94305499 Z M11.035503,4 C12.7117751,4 14.0710059,5.38170352 14.0710059,7.08569024 C14.0710059,8.78967696 12.7117751,10.1713805 11.035503,10.1713805 C9.35923077,10.1713805 8,8.78967696 8,7.08569024 C8,5.38170352 9.35923077,4 11.035503,4 Z"/>
    <filter id="rlc-d" width="118.4%" height="115.9%" x="-9.2%" y="-5.7%" filterUnits="objectBoundingBox">
      <feOffset dy=".5" in="SourceAlpha" result="shadowOffsetOuter1"/>
      <feGaussianBlur in="shadowOffsetOuter1" result="shadowBlurOuter1" stdDeviation=".5"/>
      <feColorMatrix in="shadowBlurOuter1" values="0 0 0 0 0   0 0 0 0 0   0 0 0 0 0  0 0 0 0.204257246 0"/>
    </filter>
  </defs>
  <g fill="none" fill-rule="evenodd">
    <use fill="#000" filter="url(#rlc-a)" xlink:href="#rlc-b"/>
    <use fill="#FFD800" xlink:href="#rlc-b"/>
    <use fill="url(#rlc-c)" style="mix-blend-mode:soft-light" xlink:href="#rlc-b"/>
    <circle cx="16" cy="15" r="14.5" stroke="#000" stroke-opacity=".097"/>
    <g>
      <use fill="#000" filter="url(#rlc-d)" xlink:href="#rlc-e"/>
      <use fill="#FFF" xlink:href="#rlc-e"/>
    </g>
  </g>
</svg>
